X: 1
T: Mick Duggan's
M: 12/8
L: 1/8
R: slide
K: Amaj
|:A2c e2c d2f a2f|efe cBA B2c d2B|
A2c e2c d2f a2f|efe dcB A3 A3:|
|:a3 a2f g3 g2e|fef a2f e3 e2c|
A2c e2c d2f a2f|efe dcB A3 A3:|
